X: 27484
T: Molly Put The Kettle On
R: reel
M: 4/4
K: Adorian
cded cAAc|~B3 d BGGB|cded cAAG|EDEG ~A3 B|
cded cAAc|~B3 d BGGB|BABG AGED|EDEG ~A3 B:|
|:cdef f ~g3|aged BAAB|cdef fged|eaag ~a3 g|
cdef f ~g3|aged BAAB|cded cAAG|EDEG ~A3 B:|

